X:72
T:California Cottonfields.
C:Andy Leftwich
A:Slide Effects
N:Transcribed by Larry Tanner
R:bluegrass
L:1/8
Q:1/4=220
M:4/4
K:C
|FG A_B c^c | "Bb"d2 df dc _Bd | "F"c2 GA GF zG | "Ab"^GC FG c^d ^gg | "Eb"gf ^dc _BF G^G | 
"Bb"F2 CD C_B, G,C | "F"_B,C DF DC B,C | "Bb"(3_B,CB, G,B, CD FG | _BG Bc df gd | "F"f8 |

